setcps(180/60/4)

-- midi clock stuff
clkst

clksp
--

cps 0.666

do
  let pat = "{1@4, 1@2, 1@8, 1@2, 1@11}%32"
  d1
    $ stack [
    pat
    # m  (choose ["st1", "st1", "st1", "st1", "st2", "st2"])
    # n "a4",
    n "{c4@5, a4@7, a4@9, b4@10, d4@5}%16" # m "st8" # gain 0.8
    ] 

d1 $ silence

d2 $ stack [
    n "0(5, 16)" # m "dn1"
]

d2 $ silence

d3 $ stack [
        every 2 (fast 2) $ n "a6 a5 a6 e5 b7",
        n "<a2@3 e3>",
        ccv "90" # ccn 23
        ] # m "dn4"

d3 $ silence

d4 $ stack [
        n "<a4'min7@2 e4'min7@2 b4'dim'i@2 d4'min@2>",
       every 2 rev $ n "{<a6@6 b6 a6s@4> e6 <b6@3 e5@9 c6 b5@3>}%3"
        ] # m "pk"

d4 $ silence

d8 $ s "rm*4" 

d8 $ n "0" # m "st1"

d8 $ silence

hush

